packages/crayons-icon/icons/ecommerce.svg

<?xml version="1.0" encoding="UTF-8"?>
<svg width="16px" height="16px" viewBox="0 0 16 16" version="1.1" xmlns="http://www.w3.org/2000/svg" xmlns:xlink="http://www.w3.org/1999/xlink">
    <!-- Generator: Sketch 52.6 (67491) - http://www.bohemiancoding.com/sketch -->
    <title>icon/ecommerce</title>
    <desc>Created with Sketch.</desc>
    <g id="Icons-✅" stroke="none" stroke-width="1" fill="none" fill-rule="evenodd">
        <g id="Icons" transform="translate(-736.000000, -2124.000000)" fill="currentColor">
            <g id="icon/ecommerce" transform="translate(736.000000, 2124.000000)">
                <g id="ecommerce">
                    <path d="M7,13.54 C7.67931024,13.54 8.23,14.0906898 8.23,14.77 C8.23,15.4493102 7.67931024,16 7,16 C6.32068976,16 5.77,15.4493102 5.77,14.77 C5.77,14.0906898 6.32068976,13.54 7,13.54 Z M12,13.54 C12.6793102,13.54 13.23,14.0906898 13.23,14.77 C13.23,15.4493102 12.6793102,16 12,16 C11.3206898,16 10.77,15.4493102 10.77,14.77 C10.77,14.0906898 11.3206898,13.54 12,13.54 Z M15.65,4.21 C15.9766066,4.62910739 16.0842821,5.17862388 15.94,5.69 L14.44,11.14 C14.2382765,11.8749282 13.5720985,12.3858009 12.81,12.39 L6.21,12.39 C5.39123709,12.3892793 4.68930356,11.8050352 4.54,11 L2.8,1.64 C2.77179469,1.50176055 2.65107532,1.40185486 2.51,1.4 L0.7,1.4 C0.313400675,1.4 3.20217679e-14,1.08659932 3.19744231e-14,0.7 C3.20217679e-14,0.313400675 0.313400675,6.05278953e-14 0.7,6.05826509e-14 L2.51,6.05826509e-14 C3.32792576,-0.00254026952 4.0288137,0.58434782 4.17,1.39 L4.58,3.54 L14.3,3.54 C14.8301833,3.5392096 15.330008,3.78727075 15.65,4.21 Z M13.09,10.77 L14.59,5.32 C14.6130428,5.23021667 14.5946998,5.13483282 14.54,5.06 C14.4856237,4.98177598 14.395205,4.93656667 14.3,4.94 L4.84,4.94 L5.92,10.74 C5.94009896,10.8843733 6.064241,10.9913923 6.21,10.99 L12.81,10.99 C12.9426688,10.9893477 13.0579777,10.8987478 13.09,10.77 Z" id="Combined-Shape"></path>
                </g>
            </g>
        </g>
    </g>
</svg>

<svg viewBox="0 0 16 16"><path d="M7 13.54A1.23 1.23 0 1 1 7 16a1.23 1.23 0 0 1 0-2.46zm5 0A1.23 1.23 0 1 1 12 16a1.23 1.23 0 0 1 0-2.46zm3.65-9.33c.327.42.434.969.29 1.48l-1.5 5.45a1.7 1.7 0 0 1-1.63 1.25h-6.6A1.7 1.7 0 0 1 4.54 11L2.8 1.64a.3.3 0 0 0-.29-.24H.7A.7.7 0 0 1 .7 0h1.81a1.68 1.68 0 0 1 1.66 1.39l.41 2.15h9.72c.53 0 1.03.247 1.35.67zm-2.56 6.56l1.5-5.45a.31.31 0 0 0-.05-.26.28.28 0 0 0-.24-.12H4.84l1.08 5.8a.29.29 0 0 0 .29.25h6.6a.29.29 0 0 0 .28-.22z" fill="currentColor" fill-rule="evenodd"/></svg>
